X: 25941
T: Maurice O'Connor's
R: hornpipe
M: 4/4
K: Gmajor
|:Bc|d>BG>B d>BG>B|d2 G2 G2 Bc|d>BG>B d>BG>B|c2 A2 A2 Bc|
d>BG>B d>BG>B|c>Bc>d e>fg>e|d>cB>c A>Bc>A|B2 G2 G2:|
|:(3ABc|B>AG>F E>FG>A|B2 G2 G2 gf|e>dc>B c>BA>G|E2 A2 A2 (3ABc|
B>AG>F E>FG>A|B>AB>d e>fg>e|d>cB>c A>Bc>A|B2 G2 G2:|

